X:1
T:Title
%%score { ( 1 3 ) | ( 2 4 ) }
L:1/8
M:3/4
K:C
V:1 treble nm="Grand Piano"
V:3 treble 
V:2 bass 
V:4 bass 
V:1
 z2 z[Q:1/4=92] [EG] [FA][EG] | [CE]3 [EG] [Ec][GB] | [GB] A2 F FE | D3 F [GB][FA] |[M:3/8] [EG]3 | %5
 [EG][FA][EG] |[M:3/4] [Ge]3 [Gc] [Gd][_Bc] | [Ac] A2 A Bc |[M:7/8] G c3 c3/2d3/2 | %9
[M:9/16] [Ec]4- [Ec]/ |[M:4/4] z2 z B- B4 | BAB[Ec] z CCC | z2 z A- A4 | z2 z [EG]- [EG]4 | %14
 z2 z e- e4 | [C_Bc][Bd][Bc][Ac] z CCC | [CAc][CGB]AG c3 c- |[M:5/8] c d2 [Ec]2- | [Ec]3 z2 |] %19
V:2
 z2 z [C,C] [C,C][C,C] | [C,G,]3 [C,G,] [C,G,][E,C] | [F,C] [F,CF]2 [G,B,D] [G,B,D][G,C] | %3
 [G,B,]3 [G,D] [G,,G,][B,,G,] |[M:3/8] [C,G,]3 | [C,C][C,C][C,C] |[M:3/4] [C,C]3 [E,C] [E,C][E,C] | %7
 [F,C] [F,CF]2 [^F,C_E] [F,B,E][F,A,E] |[M:7/8][K:treble] [G,CE] [G,CE]3 [G,CE]3/2[G,B,F]3/2 | %9
[M:9/16][K:bass] [C,G,C]4- [C,G,C]/ |[M:4/4] z4[K:treble] [G,D][G,D][G,D][G,D] | %11
 [G,DF][G,CF][A,CF][K:bass][C,C] [C,C]C,C,C, | z2 z F- F4[K:bass] | F,F,F,C, C,E,G,[K:treble]C | %14
 z2 z G- G4[K:bass] | E,[E,C][E,C][F,C] [F,C]F,F,F, | F,F,[K:treble][F,CF][G,CE] [G,CE]3 [G,CE]- | %17
[M:5/8] [G,CE] [G,B,F]2[K:bass] [C,G,C]2- | [C,G,C]3 z2 |] %19
V:3
 x6 | x6 | x6 | x6 |[M:3/8] x3 | x3 |[M:3/4] x6 | x6 |[M:7/8] x7 |[M:9/16] x9/2 | %10
[M:4/4] GG .A2 FFFF | z4 [EG]4 | GG .G2 CCCC | [CAc][CGB][CFA]C CC .C2 | GG .G2 CCCC | z4 [FA]4 | %16
 x8 |[M:5/8] x5 | x5 |] %19
V:4
 x6 | x6 | x6 | x6 |[M:3/8] x3 | x3 |[M:3/4] x6 | x6 |[M:7/8][K:treble] x7 |[M:9/16][K:bass] x9/2 | %10
[M:4/4] x4[K:treble] x4 | x3[K:bass] x5 | EE .E2 F,[K:bass]F,F,F, | x7[K:treble] x | %14
 EE .E2 C,[K:bass]C,C,C, | x8 | x2[K:treble] x6 |[M:5/8] x3[K:bass] x2 | x5 |] %19

